!!!COM: Haydn, Franz Joseph
!!!OPR: String Quartet in B-flat Major
!!!ONM: Opus 71, No. 1
!!!OTL: Affettuoso 
!!!OMV: 3
!!!SCT: H III:69
!!!SCA: Thematisch-bibliographisches Werkevererzeichnis (A. van Hoboken)
!!!YOR: Trautwein Edition
!!!EED: Frances Bennion
!!!ENC: Frances Bennion
!!!CDT: 1732/3/31/-1809/5/31/
!!!OCY: Österreich
!!!YEC: Copyright (c) 1994, 2000 Center for Computer Assisted Research in the Humanities
!!!YEM: Rights to all derivative editions reserved.
!!!YEM: Refer to licensing agreement for further details.
!!!YEN: United States of America
**kern	**kern	**kern	**kern
*k[b-e-]	*k[b-e-]	*k[b-e-]	*k[b-e-]
*B-:	*B-:	*B-:	*B-:
*clefF	*clefF	*clefC3	*clefF4
*M3/4	*M3/4	*M3/4	*M3/4
*tb8	*tb8	*tb8	*tb8
=0-	=0-	=0-	=0-
2r	2r	2r	2r
8B-	4r	4r	4r
8c	.	.	.
=1	=1	=1	=1
2.d	[2.B-	2.F	4BB-
.	.	.	4F
.	.	.	4AA-
=2	=2	=2	=2
2e-	2.B-]	2.E-	4GG
.	.	.	4BB-
4g	.	.	4EE-
=3	=3	=3	=3
2f	2.A	2.F	4FF
.	.	.	4AA
4e-	.	.	4C
=4	=4	=4	=4
4d	4B-	4B-	4BB-
4r	4r	4r	4B-
4gg	4b-	4e-	4r
=5	=5	=5	=5
2ff	2.a	4f	2.r
.	.	4a	.
4ee-	.	4cc	.
=6	=6	=6	=6
4dd	4b-	4b-	2.r
4r	2r	2r	.
8B-	.	.	.
8c	.	.	.
=7	=7	=7	=7
2.d	[2.B-	2F	4BB-
.	.	.	4D
.	.	4F#	4FF#
=8	=8	=8	=8
2e-	2.B-]	[2.G	4GG
.	.	.	4BB-
4g	.	.	4EE-
=9	=9	=9	=9
2f	2B	2G]	4DD
.	.	.	4GG
4e-	4c	4F#	4FF#
=10	=10	=10	=10
4d	4B	4G	4GG
4r	4r	2r	4G
4gg	4ee-	.	4r
=11	=11	=11	=11
2ff	2dd	4r	2.r
.	.	4f	.
4ee-	4cc	4f#	.
=12	=12	=12	=12
4dd	4b	4g	2r
4r	4r	4G	.
4gg	[4b-	4c	4e
=13	=13	=13	=13
2cc	4b-]	2f	2f
.	4a	.	.
4gg	[4b-	4c	4e
=14	=14	=14	=14
2cc	4b-]	2f	2f
.	4a	.	.
[4ff	[4a	4d	4B
=15	=15	=15	=15
4ff]	4a]	4c	2c
4gg	4b-	8e	.
.	.	8g	.
4ee	4g	4b-	4C
=16	=16	=16	=16
4ff	4a	4a	4F
2r	4r	4r	4r
.	[4f	4c	4A
=17	=17	=17	=17
2.r	4f]	2.d-	2.B-
.	4g-	.	.
.	4e	.	.
=18	=18	=18	=18
2r	2f	2c	2A
4cc	4a	[4f	4r
=19	=19	=19	=19
2.dd-	2.b-	4f]	2.r
.	.	4g-	.
.	.	4e	.
=20	=20	=20	=20
2cc	2a	2f	2r
[4ff	4b	[4g	4d
=21	=21	=21	=21
4ff]	4cc	2g]	2.c
4gg	4r	.	.
4ee	[4b-	[4g	.
=22	=22	=22	=22
2r	4b-]	4g]	2.F
.	4cc	4a	.
[4ee-	4a	[4cc	.
=23	=23	=23	=23
4ee-]	2r	4cc]	2.B-
4ff	.	4dd	.
4dd	[4a-	[4f	.
=24	=24	=24	=24
2r	4a-]	4f]	2.e-
.	4b-	4g	.
[4ee-	[4g	4e-	.
=25	=25	=25	=25
4ee-]	4g]	2A	2A
4dd	4f	.	.
4cc	4e-	4B-	4B-
=26	=26	=26	=26
4b-	4d	2F	2F
4a	4c	.	.
[4gg	[4ee-	4r	4r
=27	=27	=27	=27
4gg]	4ee-]	2a	2.r
4ff	4dd	.	.
4ee-	4cc	4b-	.
=28	=28	=28	=28
4dd	4b-	2f	2.r
4cc	4a	.	.
8B-	4r	4r	.
8c	.	.	.
=29	=29	=29	=29
2.d	[2.B-	2.F	4BB-
.	.	.	4F
.	.	.	4AA-
=30	=30	=30	=30
2e-	2.B-]	2.E-	4GG
.	.	.	4BB-
4g	.	.	4EE-
=31	=31	=31	=31
2f	2.A	2.F	4FF
.	.	.	4AA
4e-	.	.	4C
=32	=32	=32	=32
4d	4B-	4B-	4BB-
4r	4r	4r	4B-
8ddd	8d	8B-	4r
8ccc	8e-	8c	.
=33	=33	=33	=33
4bb-	4f	2.d	2.r
4ddd	4b-	.	.
4ff#	4b-	.	.
=34	=34	=34	=34
4gg	2.b-	2e-	2.r
4bb-	.	.	.
4ee-	.	4g	.
=35	=35	=35	=35
4dd	2b-	2f	2.r
4ff	.	.	.
4a	4a 4f	4e-	.
=36	=36	=36	=36
4b-	2b- 2f	2d	2r
4dd	.	.	.
4g	4r	[4e-	8G
.	.	.	8A
=37	=37	=37	=37
2f	2.r	4e-]	4B-
.	.	4d	4d
4e-	.	[4c	4F#
=38	=38	=38	=38
2.d	2r	4c]	4G
.	.	4B-	4B-
.	4f	4B-	4D
=39	=39	=39	=39
2.c	4g	2B-	4E-
.	4e-	.	4G
.	4f	4A	4F
=40	=40	=40	=40
4B-	4b-	4B-	4BB-
4r	4r	4r	4r
8ff	4f	4c	4AA
8cc	.	.	.
=41	=41	=41	=41
8dd	4.f	4d	4BB-
8a	.	.	.
8b-	.	4r	4r
8f	8r	.	.
8b-	4f#	4B-	4D
8f#	.	.	.
=42	=42	=42	=42
8g	4g	4B-	4E-
8d	.	.	.
8e-	2r	2r	2r
8c	.	.	.
8gg	.	.	.
8dd	.	.	.
=43	=43	=43	=43
8ee-	4g	4c	4E-
8b	.	.	.
8cc	4r	4r	4r
8g	.	.	.
8ee-	8g	4c	4C
8cc	8e-	.	.
=44	=44	=44	=44
8b-	4c	4c	4F
8a	.	.	.
8g	4r	4r	4r
8f	.	.	.
8ff	4c	4f	4AA
8cc	.	.	.
=45	=45	=45	=45
8dd	4d	4f	4BB-
8a	.	.	.
8b-	4r	4r	4r
8f	.	.	.
8b-	4f#	4B-	4D
8f#	.	.	.
=46	=46	=46	=46
8g	4g	4B-	4E-
8d	.	.	.
8e-	2r	2r	2r
8c	.	.	.
8gg	.	.	.
8dd	.	.	.
=47	=47	=47	=47
8ee-	4g	4c	4E-
8b	.	.	.
8cc	4r	4r	4r
8ee-	.	.	.
8f	4e-	4c	4F
8a	.	.	.
=48	=48	=48	=48
4b-	4d	4d	4BB-
4r	4r	4r	4B-
8cc	4a	8f	4r
8ff	.	8c	.
=49	=49	=49	=49
4dd	4b-	8d	2r
.	.	8A	.
4r	4r	8B-	.
.	.	8F	.
4aa	8cc	4r	8F
.	8ff	.	8C
=50	=50	=50	=50
4bb-	4dd	2r	8D
.	.	.	8AA
4r	4r	.	8BB-
.	.	.	8FF
8ccc	4aa	8f	4r
8fff	.	8c	.
=51	=51	=51	=51
4ddd	4bb-	8d	2r
.	.	8A	.
4r	4r	8B-	.
.	.	8F	.
4eee	4bb-	4r	8G
.	.	.	8C
=52	=52	=52	=52
4fff	4aa	2.r	8F
.	.	.	8AA
4r	4r	.	8C
.	.	.	8FF
4ee	8b-	.	4r
.	8cc	.	.
=53	=53	=53	=53
4ff	8a	2.r	2.r
.	8cc	.	.
4aa	8f	.	.
.	8a	.	.
4ee	8b-	.	.
.	8cc	.	.
=54	=54	=54	=54
4ff	8a	2r	2.r
.	8cc	.	.
4aa	8f	.	.
.	8cc	.	.
4ee	8b-	4c	.
.	8cc	.	.
=55	=55	=55	=55
4ff	8a	4F	2.r
.	8cc	.	.
4ccc	8f	4r	.
.	8cc	.	.
4ee	8b-	4c	.
.	8cc	.	.
=56	=56	=56	=56
8ff	4a	4F	[2.F
8f	.	.	.
8a	4e-	2r	.
8f	.	.	.
8b-	4d	.	.
8f	.	.	.
=57	=57	=57	=57
8b	4d-	2.r	2.F_
8f	.	.	.
8cc	4c	.	.
8f	.	.	.
8dd	4B	.	.
8f	.	.	.
=58	=58	=58	=58
8ee-	4c	4A	2.F_
8f	.	.	.
8a	4e-	8c	.
8f	.	4.r	.
8b-	4d	.	.
8f	.	.	.
=59	=59	=59	=59
8b	4d-	2.r	2.F_
8f	.	.	.
8cc	4c	.	.
8f	.	.	.
8dd	4B	.	.
8f	.	.	.
=60	=60	=60	=60
8ee-	4c	4A	2.F_
8f	.	.	.
8a	4e-	8c	.
8f	.	4.r	.
8b-	4d	.	.
8f	.	.	.
=61	=61	=61	=61
8b	4d-	2.r	2.F_
8f	.	.	.
8cc	4c	.	.
8f	.	.	.
8dd	4B	.	.
8f	.	.	.
=62	=62	=62	=62
8ee-	4c	2.r	2F]
8f	.	.	.
8ee	4B-	.	.
8f	.	.	.
8ff	4A	.	8FF
8cc	.	.	8AA
=63	=63	=63	=63
8dd	4B-	2r	8BB-
8a	.	.	8C
8b-	2r	.	4D
8f	.	.	.
8b-	.	8D	4r
8f#	.	8B-	.
=64	=64	=64	=64
8g	2r	8E-	2.r
8d	.	8F	.
8e-	.	4G	.
8c	.	.	.
8gg	8e-	4r	.
8dd	8B	.	.
=65	=65	=65	=65
8ee-	8c	2.r	2.r
8b	8d	.	.
8cc	8e-	.	.
8g	8d	.	.
8ee-	8c	.	.
8cc	8e-	.	.
=66	=66	=66	=66
8b-	4f	2.r	2r
8a	.	.	.
8g	2r	.	.
8f	.	.	.
8ff	.	.	8AA
8cc	.	.	8F
=67	=67	=67	=67
8dd	2.r	2r	8BB-
8a	.	.	8C
8b-	.	.	4D
8f	.	.	.
8b-	.	8D	4r
8f#	.	8B-	.
=68	=68	=68	=68
8g	2r	8E-	2.r
8d	.	8F	.
8e-	.	4G	.
8c	.	.	.
8gg	8e-	4r	.
8dd	8B	.	.
=69	=69	=69	=69
8ee-	8c	2r	2r
8b	8d	.	.
8cc	8e-	.	.
8ee-	8g	.	.
8f	8f	4c	4F
8a	8e-	.	.
=70	=70	=70	=70
4b-	4d	4d	4BB-
2r	2r	2r	2r
==	==	==	==
*-	*-	*-	*-
!!!RWG1: This file contains only pitch and duration data.
!!!RWG2: Transposing instruments are not transposed.
!!!RWG3: Spines may have incompatible meters.
!!!RWG4: Durations of rests and tied notes may be interpreted.
!!!RWG: Key is interpreted using the Humdrum key tool.
!!!GTL: 6 Quartetti ("Apponyi")
!!!AFT: stage1
!!!END: 1997/04/15
!!format changes:
!!content changes:
!!public access: complete
!!!KEY: 3702669649
!!!EMD: Converted from MuseData to Humdrum Dec 16, 2000, by Andreas Kornstaedt using muse2kern.
